src/icon/action/logout/icon_logout_l_black.svg

<svg width="30" height="30" viewBox="0 0 30 30" xmlns="http://www.w3.org/2000/svg"><g fill="none" fill-rule="evenodd"><path d="M0 0h30v30H0z"/><path d="M2 25.5C2 26.879 3.121 28 4.5 28h12c1.379 0 2.5-1.121 2.5-2.5V19h-1v6.5c0 .827-.673 1.5-1.5 1.5h-12c-.827 0-1.5-.673-1.5-1.5v-21C3 3.673 3.673 3 4.5 3h12c.827 0 1.5.673 1.5 1.5V9h1V4.5C19 3.121 17.879 2 16.5 2h-12A2.502 2.502 0 0 0 2 4.5v21z" fill-opacity=".9" fill="#0B1F35" fill-rule="nonzero"/><path fill-opacity=".9" fill="#0B1F35" fill-rule="nonzero" d="M22.841 9.298L27.543 14H9.652v1h17.891l-4.702 4.702.707.707 5.909-5.909-5.909-5.909z"/></g></svg>

<svg width="30px" height="30px" viewBox="0 0 30 30" version="1.1" xmlns="http://www.w3.org/2000/svg"><g stroke="none" stroke-width="1" fill="none" fill-rule="evenodd"><polygon points="0 0 30 0 30 30 0 30"/><path d="M2,25.5 C2,26.879 3.121,28 4.5,28 L16.5,28 C17.879,28 19,26.879 19,25.5 L19,19 L18,19 L18,25.5 C18,26.327 17.327,27 16.5,27 L4.5,27 C3.673,27 3,26.327 3,25.5 L3,4.5 C3,3.673 3.673,3 4.5,3 L16.5,3 C17.327,3 18,3.673 18,4.5 L18,9 L19,9 L19,4.5 C19,3.121 17.879,2 16.5,2 L4.5,2 C3.11974521,2.00110288 2.00110288,3.11974521 2,4.5 L2,25.5 Z" fill-opacity="0.9" fill="#0B1F35" fill-rule="nonzero"/><polygon fill-opacity="0.9" fill="#0B1F35" fill-rule="nonzero" points="22.841 9.298 27.543 14 9.652 14 9.652 15 27.543 15 22.841 19.702 23.548 20.409 29.457 14.5 23.548 8.591"/></g></svg>
